src/static/logos/processwire-icon.svg

<?xml version="1.0" encoding="UTF-8" standalone="no"?>
<svg width="256px" height="256px" viewBox="0 0 256 256" version="1.1" xmlns="http://www.w3.org/2000/svg" xmlns:xlink="http://www.w3.org/1999/xlink" preserveAspectRatio="xMidYMid">
    <g>
        <path d="M128.134247,106.805839 C139.838233,106.805839 149.327564,116.294325 149.327564,128 C149.327564,139.703986 139.838233,149.193317 128.134247,149.193317 C116.428572,149.193317 106.940086,139.703986 106.940086,128 C106.940086,116.294325 116.428572,106.805839 128.134247,106.805839 L128.134247,106.805839 Z M128,0 C57.3412576,0 0.0548809045,57.2551368 0.000844321607,127.902059 L0,127.902059 L0,192.755246 L32.8407332,221.925713 L32.8407332,126.768135 C32.8407332,74.2116477 75.4452015,31.6080237 128,31.6080237 C180.554798,31.6080237 223.157578,74.2116477 223.157578,126.768135 C223.157578,179.319556 180.554798,221.925713 128,221.925713 L110.5884,221.925713 L110.5884,175.254147 L128,175.254147 C154.77766,175.254147 176.491079,153.546639 176.491079,126.768135 C176.491079,99.9862534 154.77766,78.2770562 128,78.2770562 C101.221496,78.2770562 79.5114544,99.9862534 79.5114544,126.768135 L79.5114544,255.999156 L128,255.999156 C198.691671,255.999156 256,198.692515 256,128.000844 C256,57.3083291 198.691671,0 128,0 L128,0 Z" fill="#368FB8"></path>
    </g>
</svg>

<svg width="256" height="256" xmlns="http://www.w3.org/2000/svg" preserveAspectRatio="xMidYMid"><path d="M128.134 106.806c11.704 0 21.194 9.488 21.194 21.194 0 11.704-9.49 21.193-21.194 21.193-11.705 0-21.194-9.489-21.194-21.193 0-11.706 9.489-21.194 21.194-21.194zM128 0C57.341 0 .055 57.255 0 127.902v64.853l32.84 29.17v-95.157c0-52.556 42.605-95.16 95.16-95.16s95.158 42.604 95.158 95.16c0 52.552-42.603 95.158-95.158 95.158h-17.412v-46.672H128c26.778 0 48.491-21.707 48.491-48.486 0-26.782-21.713-48.49-48.491-48.49-26.779 0-48.489 21.708-48.489 48.49V256H128c70.692 0 128-57.306 128-127.998C256 57.308 198.692 0 128 0z" fill="#368FB8"/></svg>
